overrides/.icons/option/feat-advanced.svg

<?xml version="1.0" encoding="UTF-8" standalone="no"?>
<svg
   viewBox="0 0 24 24"
   version="1.1"
   id="svg1"
   sodipodi:docname="feat-advanced.svg"
   inkscape:version="1.3.2 (091e20e, 2023-11-25, custom)"
   xml:space="preserve"
   xmlns:inkscape="http://www.inkscape.org/namespaces/inkscape"
   xmlns:sodipodi="http://sodipodi.sourceforge.net/DTD/sodipodi-0.dtd"
   xmlns="http://www.w3.org/2000/svg"
   xmlns:svg="http://www.w3.org/2000/svg"><defs
     id="defs1" /><sodipodi:namedview
     id="namedview1"
     pagecolor="#ffffff"
     bordercolor="#111111"
     borderopacity="1"
     inkscape:showpageshadow="0"
     inkscape:pageopacity="0"
     inkscape:pagecheckerboard="1"
     inkscape:deskcolor="#d1d1d1"
     inkscape:zoom="15.291184"
     inkscape:cx="6.9647975"
     inkscape:cy="10.038464"
     inkscape:window-width="1366"
     inkscape:window-height="697"
     inkscape:window-x="-8"
     inkscape:window-y="-8"
     inkscape:window-maximized="1"
     inkscape:current-layer="svg1" /><path
     id="path1"
     d="M 7 2 C 5.9000022 2 5 2.9000022 5 4 L 5 20 C 5 21.099998 5.9000022 22 7 22 L 17 22 C 18.099998 22 19 21.099998 19 20 L 19 4 C 19 2.9000022 18.099998 2 17 2 L 7 2 z M 12 4.8574219 A 1.4285714 1.4285714 0 0 1 13.427734 6.2851562 C 13.427734 6.6137274 13.313895 6.9362167 13.099609 7.1933594 C 13.713895 7.4290734 14.27076 7.7850451 14.742188 8.2421875 L 11.492188 11.492188 L 12.507812 12.507812 L 15.685547 9.328125 A 6.3857143 6.3857143 0 0 1 17 12.714844 C 17 14.68627 14.764283 16.285156 12 16.285156 C 9.2357173 16.285156 7 14.68627 7 12.714844 C 7 11.014845 8.6646787 7.9933586 10.900391 7.1933594 C 10.686105 6.9362167 10.572266 6.6137274 10.572266 6.2851562 A 1.4285714 1.4285714 0 0 1 12 4.8574219 z M 7 17.714844 L 17 17.714844 L 17 19.142578 L 7 19.142578 L 7 17.714844 z " /></svg>

<?xml version="1.0" encoding="UTF-8"?>
<svg id="svg1" version="1.1" viewBox="0 0 24 24" xml:space="preserve" xmlns="http://www.w3.org/2000/svg"><path id="path1" d="m7 2c-1.1 0-2 0.9-2 2v16c0 1.1 0.9 2 2 2h10c1.1 0 2-0.9 2-2v-16c0-1.1-0.9-2-2-2h-10zm5 2.8574a1.4286 1.4286 0 0 1 1.4277 1.4277c0 0.32857-0.11384 0.65106-0.32812 0.9082 0.61429 0.23571 1.1712 0.59169 1.6426 1.0488l-3.25 3.25 1.0156 1.0156 3.1777-3.1797a6.3857 6.3857 0 0 1 1.3145 3.3867c0 1.9714-2.2357 3.5703-5 3.5703-2.7643 0-5-1.5989-5-3.5703 0-1.7 1.6647-4.7215 3.9004-5.5215-0.21429-0.25714-0.32812-0.57963-0.32812-0.9082a1.4286 1.4286 0 0 1 1.4277-1.4277zm-5 12.857h10v1.4277h-10v-1.4277z"/></svg>
